RedditPostImage/Site/reddit-logo.svg

<svg viewBox="0 0 512 512" xmlns="http://www.w3.org/2000/svg"><path d="m201.5 305.5c-13.8 0-24.9-11.1-24.9-24.6 0-13.8 11.1-24.9 24.9-24.9 13.6 0 24.6 11.1 24.6 24.9 0 13.6-11.1 24.6-24.6 24.6zm302.5-49.5c0 137-111 248-248 248s-248-111-248-248 111-248 248-248 248 111 248 248zm-132.3-41.2c-9.4 0-17.7 3.9-23.8 10-22.4-15.5-52.6-25.5-86.1-26.6l17.4-78.3 55.4 12.5c0 13.6 11.1 24.6 24.6 24.6 13.8 0 24.9-11.3 24.9-24.9s-11.1-24.9-24.9-24.9c-9.7 0-18 5.8-22.1 13.8l-61.2-13.6c-3-.8-6.1 1.4-6.9 4.4l-19.1 86.4c-33.2 1.4-63.1 11.3-85.5 26.8-6.1-6.4-14.7-10.2-24.1-10.2-34.9 0-46.3 46.9-14.4 62.8-1.1 5-1.7 10.2-1.7 15.5 0 52.6 59.2 95.2 132 95.2 73.1 0 132.3-42.6 132.3-95.2 0-5.3-.6-10.8-1.9-15.8 31.3-16 19.8-62.5-14.9-62.5zm-68.9 116.2c-18.2 18.2-76.1 17.9-93.6 0-2.2-2.2-6.1-2.2-8.3 0-2.5 2.5-2.5 6.4 0 8.6 22.8 22.8 87.3 22.8 110.2 0 2.5-2.2 2.5-6.1 0-8.6-2.2-2.2-6.1-2.2-8.3 0zm7.7-75c-13.6 0-24.6 11.1-24.6 24.9 0 13.6 11.1 24.6 24.6 24.6 13.8 0 24.9-11.1 24.9-24.6 0-13.8-11-24.9-24.9-24.9z"/></svg>

<?xml version="1.0" encoding="utf-8"?>
<!-- Generator: Adobe Illustrator 27.5.0, SVG Export Plug-In . SVG Version: 6.00 Build 0)  -->
<svg version="1.1" id="Layer_1" xmlns="http://www.w3.org/2000/svg" xmlns:xlink="http://www.w3.org/1999/xlink" x="0px" y="0px"
	 viewBox="0 0 512 512" style="enable-background:new 0 0 512 512;" xml:space="preserve">
<style type="text/css">
	.st0{fill:#FFFB76;}
	.st1{fill:#0E1742;}
</style>
<circle class="st0" cx="255" cy="246" r="194"/>
<path class="st1" d="M201.5,305.5c-13.8,0-24.9-11.1-24.9-24.6c0-13.8,11.1-24.9,24.9-24.9c13.6,0,24.6,11.1,24.6,24.9
	C226.1,294.5,215,305.5,201.5,305.5z M504,256c0,137-111,248-248,248S8,393,8,256S119,8,256,8S504,119,504,256z M371.7,214.8
	c-9.4,0-17.7,3.9-23.8,10c-22.4-15.5-52.6-25.5-86.1-26.6l17.4-78.3l55.4,12.5c0,13.6,11.1,24.6,24.6,24.6
	c13.8,0,24.9-11.3,24.9-24.9s-11.1-24.9-24.9-24.9c-9.7,0-18,5.8-22.1,13.8l-61.2-13.6c-3-0.8-6.1,1.4-6.9,4.4l-19.1,86.4
	c-33.2,1.4-63.1,11.3-85.5,26.8c-6.1-6.4-14.7-10.2-24.1-10.2c-34.9,0-46.3,46.9-14.4,62.8c-1.1,5-1.7,10.2-1.7,15.5
	c0,52.6,59.2,95.2,132,95.2c73.1,0,132.3-42.6,132.3-95.2c0-5.3-0.6-10.8-1.9-15.8C417.9,261.3,406.4,214.8,371.7,214.8L371.7,214.8
	z M302.8,331c-18.2,18.2-76.1,17.9-93.6,0c-2.2-2.2-6.1-2.2-8.3,0c-2.5,2.5-2.5,6.4,0,8.6c22.8,22.8,87.3,22.8,110.2,0
	c2.5-2.2,2.5-6.1,0-8.6C308.9,328.8,305,328.8,302.8,331z M310.5,256c-13.6,0-24.6,11.1-24.6,24.9c0,13.6,11.1,24.6,24.6,24.6
	c13.8,0,24.9-11.1,24.9-24.6C335.4,267.1,324.4,256,310.5,256z"/>
</svg>
